src/public/img/landing/new/external-websites/urban.svg

<svg width="98" height="32" viewBox="0 0 98 32" fill="none" xmlns="http://www.w3.org/2000/svg">
<path fill-rule="evenodd" clip-rule="evenodd" d="M2.69788 12.0258C2.69788 12.0258 3.34329 12.671 3.47238 13.3161V15.1226L3.21421 17.1871C3.21421 17.9613 3.34329 18.2194 3.47238 18.6064L3.60146 19.6387L3.47238 22.7355L3.34329 24.671L3.73054 25.5742L4.24687 25.0581L4.63412 25.8323C4.89229 26.2194 5.92496 26.6064 5.92496 26.6064L7.21579 26.9935L11.3465 25.3161L12.25 25.8323L14.5735 26.7355L16.1225 26.9935L17.6715 26.6064L18.8333 26.2194L19.0914 24.671L15.9935 22.6064L15.348 23.1226L14.9608 19.7677L14.5735 17.0581L14.9608 16.8L14.5735 14.2194L14.8317 12.1548L14.9608 11.1226V10.4774L14.0572 10.0903L13.0245 10.4774L11.2174 9.70322L9.53929 10.6064L9.66837 11.6387H12.5082L13.67 12.4129V13.1871L13.2827 13.5742L13.1536 15.7677L12.8955 18.7355C12.7664 20.0258 12.5082 21.1871 12.121 22.2194L9.79745 23.5097C8.6357 23.8968 7.60304 23.8968 7.60304 23.8968L5.79587 23.1226L5.15046 18.8645V17.8323L5.40862 16.0258L5.02137 15.6387L5.40862 13.5742L5.66679 12.1548L5.79587 11.3806L5.53771 10.4774L3.98871 9.96129L2.95604 9.70322H1.92338L0.89071 9.83226L0.116211 10.6064L0.374377 11.1226L0.503461 11.3806L0.89071 11.5097L1.40704 12.1548L2.31063 12.0258H2.69788ZM20.3823 9.83226L21.6731 9.57419L23.4803 9.44516L26.4492 9.70322L26.8364 9.18709L27.3528 9.83226H28.6436L30.9671 10.4774L32.7743 12.5419V13.4452C32.7743 14.0903 33.0324 14.8645 32.9034 15.1226L32.387 17.0581L30.1926 18.9935C30.1926 18.9935 31.0962 20.671 31.3544 21.9613C31.4834 23.2516 31.0962 24.5419 31.0962 24.5419L31.6125 25.1871L32.5161 25.0581L32.9034 24.8L33.936 25.1871L33.4197 26.8645L32.1289 26.6064L31.7416 26.8645L31.2253 26.3484L30.838 26.7355C30.838 26.7355 30.1926 25.9613 29.8054 24.671C29.289 23.1226 29.9344 22.3484 29.9344 22.3484L29.5472 20.4129L27.9982 18.9935L25.1584 18.3484L24.9002 18.7355L25.0293 20.1548L25.1584 20.0258V21.3161H25.0293V21.5742H24.9002V24.5419L25.2874 24.929L26.5783 25.0581H27.6109V25.4452L27.9982 25.8323L27.2237 26.6064L26.5783 26.4774L25.9329 26.3484L25.6747 26.6064L24.3839 26.4774L21.4149 26.8645L20.5114 26.2194V25.0581L23.2221 24.2839L23.6094 20.4129L23.2221 19.6387L23.3512 18.4774L22.9639 15.2516L23.4803 14.2194L23.3512 13.0581L23.2221 11.7677H22.9639L22.7058 12.1548L20.3823 11.5097L20.1241 10.7355V9.83226H20.3823ZM25.1584 12.4129L26.3201 12.2839L27.6109 12.1548L27.8691 12.2839L29.0309 12.1548L30.3217 13.3161L30.1926 13.8323L30.0635 14.2194L30.3217 14.4774V15.1226L29.6763 16.4129L27.8691 16.929L27.0946 17.1871H26.7074L26.5783 17.5742L25.9329 16.8H25.1584L25.0293 14.4774L24.9002 12.5419L25.1584 12.4129ZM34.9687 1.57419C34.9687 1.57419 35.3559 2.34838 36.0014 2.73548L37.2922 3.38064L38.3249 3.63871L38.8412 5.96129L39.0993 7.50968L38.8412 10.8645L38.7121 13.5742L38.9703 15.8968L39.2284 17.5742C39.3575 18.2194 39.2284 19.1226 39.0993 19.8968L38.8412 22.6064H40.2611L40.9065 21.9613H42.0683L42.5846 22.7355H47.2316C47.2316 22.7355 48.2643 22.0903 48.9097 21.1871C49.5551 20.4129 49.8133 19.8968 50.2005 18.9935C50.8264 17.3724 51.2596 15.6834 51.4913 13.9613L51.2332 13.7032L51.1041 12.0258L50.975 10.8645L49.6842 9.18709L49.1678 8.4129L48.5224 6.86451L47.3607 6.47742H46.8443L45.9408 6.34838H45.2953L44.779 6.47742L43.4882 6.99355L42.1973 8.0258L41.8101 8.54193H41.0356L40.7774 8.0258L41.4229 4.67097L41.0356 3.50968L41.4229 1.83226L41.0356 1.05806L40.7774 0.412901L38.583 0.283869C37.1631 0.154837 36.2595 -0.103228 36.0014 0.0258045C35.6141 0.154837 35.485 0.412901 35.2269 0.799997L34.9687 1.57419ZM43.6173 9.18709C43.6173 9.18709 43.1009 9.70322 42.3264 11.1226C41.5519 12.4129 41.4229 12.929 41.1647 13.9613L40.9065 15.7677L41.0356 16.671L40.9065 17.4452C40.9065 17.4452 41.5519 18.6064 42.5846 19.2516L44.6499 20.671C45.0372 20.929 45.5535 20.929 45.5535 20.929L46.0698 20.4129L46.8443 19.8968C47.184 19.2348 47.6189 18.6262 48.1352 18.0903C48.2431 17.2271 48.3722 16.3666 48.5224 15.5097L48.2643 14.4774L48.0061 13.5742L48.1352 13.1871L48.0061 12.0258L47.877 11.2516L47.1025 10.2194L46.328 9.05806H45.6826L44.9081 8.92903L44.2627 9.05806H43.6173V9.18709ZM59.3654 10.6064L58.9782 11.1226L58.5909 11.3806L58.2037 11.6387L57.4292 12.2839H56.2674L55.622 10.7355L55.3638 10.0903C55.3614 9.08833 55.4916 8.09041 55.7511 7.12258L56.7838 6.34838L58.4618 5.44516L59.1073 5.18709H59.3654V5.05806L59.7527 4.92903H60.6563L61.4308 5.05806H62.9798L64.0124 5.44516L66.0778 6.09032L66.5941 6.86451L67.2395 7.63871L67.3686 9.57419L67.4977 11.8968V14.3484H67.2395L67.3686 15.3806L67.4977 16.4129L67.3686 16.671L67.2395 16.929L67.8849 17.5742L68.4012 18.2194L69.0467 18.0903L70.2084 17.9613H70.5957L70.7247 19.5097L70.8538 20.671L69.6921 21.9613L68.7885 22.0903L67.6267 22.2194L66.465 21.4452L65.4323 20.671L63.4961 21.9613L61.5598 22.6064H59.3654L57.5583 22.4774L56.1383 22.3484L55.2348 21.3161L54.5893 20.5419L54.2021 18.2194V16.1548L54.7184 15.2516L55.3638 14.2194L57.8164 13.4452L58.9782 13.1871L59.8818 13.0581L61.6889 12.2839L62.4634 11.7677L62.7216 11.5097H63.1088L64.1415 11.1226L64.6578 10.9935L65.0451 10.6064L65.4323 10.3484V9.18709L63.8833 8.28387L62.0762 7.50968L61.0435 7.25161L60.0108 7.50968L59.2363 7.76774L58.8491 8.15484L58.5909 8.67097L58.4618 8.8L58.5909 9.57419L59.1073 10.4774L59.3654 10.6064ZM58.5909 15.5097L56.6547 16.8L56.7838 18.7355L57.5583 19.8968H61.0435L62.0762 19.5097L63.2379 19.1226H63.367L64.5287 17.1871L64.3997 15.8968V14.6064H63.367L61.9471 14.9935L60.9144 15.3806H58.3328L58.5909 15.5097ZM73.1773 4.8L71.4992 6.21935L71.7574 7.12258L72.5319 7.38064L73.4355 7.63871L73.8227 7.76774L74.21 8.15484L73.9518 9.05806V9.18709L74.3391 10.2194L74.7263 11.1226H73.8227V12.2839L74.5972 13.3161L74.3391 14.8645L73.8227 15.8968L74.0809 16.1548L73.6937 17.7032V17.8323L74.0809 18.4774L73.9518 19.3806V19.8968L72.4028 20.671L71.6283 22.2194L72.661 22.6064L73.9518 22.8645C74.5972 22.7355 74.8554 22.4774 74.8554 22.4774L75.759 22.7355L76.6626 22.9935V22.8645L76.9207 23.1226L77.308 22.4774H77.5662L78.857 22.7355L79.6315 22.0903V21.3161L79.3733 21.0581L78.9861 20.4129H78.3407L76.9207 19.8968L76.6626 15.6387L76.4044 12.4129L76.6626 12.1548L76.4044 10.3484V9.83226L76.5335 9.44516L77.6952 11.1226L78.857 13.7032L79.5024 15.1226L80.2769 16.4129L80.1478 14.0903C80.1478 13.1871 79.7606 12.4129 79.6315 11.8968L78.857 10.0903L79.1152 9.18709L77.8243 7.89677L78.3407 6.34838L77.4371 5.44516H76.9207L76.0172 5.31613L75.5008 5.18709L75.2427 5.44516L74.0809 5.18709C73.8227 4.92903 73.1773 4.8 73.1773 4.8ZM80.5351 16.1548L81.5677 16.5419H82.4713V16.671H83.6331V17.8323L84.1494 18.6064L83.8912 18.8645V18.9935H84.0203L84.1494 21.5742L83.7622 22.0903L83.3749 22.7355L82.3422 22.4774C81.8259 22.2194 81.5677 21.7032 81.5677 21.7032V20.929L81.0514 20.2839H80.5351V18.8645L81.0514 18.3484L80.6642 17.7032L80.406 17.1871L80.6642 16.2839L80.5351 16.1548ZM82.6004 16.0258H83.504V14.9935L83.6331 13.3161L83.504 12.5419V11.8968L83.8912 10.4774V9.83226H83.6331L83.8912 9.70322L83.7622 8.8L83.6331 8.0258L83.8912 7.76774L84.1494 7.50968L85.3111 7.76774L85.9566 7.12258L86.4729 6.34838L86.602 5.96129L85.8275 5.44516L85.1821 4.92903H84.5367L82.9877 5.18709H81.955L81.1805 4.92903L80.1478 5.31613L79.5024 5.57419L79.2442 6.60645L79.7606 7.38064L80.6642 7.63871L81.5677 7.89677L81.6968 7.76774L81.955 8.0258L82.2132 8.28387L82.3422 9.83226L82.6004 11.7677V12.5419C82.3422 12.671 82.0841 14.0903 82.0841 14.0903L82.3422 14.9935L82.6004 16.0258Z" fill="black"/>
<path d="M33.0327 22.2193L97.7035 24.4129V32.1548L33.0327 29.9613V22.2193Z" fill="black"/>
<path fill-rule="evenodd" clip-rule="evenodd" d="M51.1042 25.4452C51.1042 25.0581 51.3623 24.8 51.7496 24.8H54.0731C54.4603 24.8 54.7185 25.0581 54.7185 25.4452V25.9613L53.8149 26.0903V25.4452H52.0077V27.2516H53.8149V26.6064L54.7185 26.8645V27.3806C54.7185 27.7677 54.4603 28.0258 54.0731 28.0258H51.7496C51.3623 28.0258 51.1042 27.7677 51.1042 27.3806V25.4452ZM46.7153 24.671H47.6189V27.8968H46.7153V24.671ZM62.7217 24.929H63.6252V28.1548H62.7217V24.929ZM58.3328 24.929H59.2364V28.1548H58.3328V24.929Z" fill="white"/>
<path fill-rule="evenodd" clip-rule="evenodd" d="M57.0422 24.8L60.7856 24.929V25.5742H57.0422V24.8ZM73.9521 25.3161L76.2756 27.2516V25.4452H77.1792V28.671H76.4047L74.2102 26.6064L74.0812 28.5419H73.1776L73.3067 25.3161H73.9521ZM66.3362 25.7032C66.3362 25.3161 66.5943 25.0581 66.9816 25.0581L69.8214 25.1871C70.2087 25.1871 70.4668 25.4452 70.4668 25.8323V27.7677C70.4668 28.1548 70.2087 28.4129 69.8214 28.4129H66.9816C66.5943 28.4129 66.3362 28.1548 66.3362 27.7677V25.7032ZM67.2398 25.8323H69.4342V27.6387L67.2398 27.5097V25.8323ZM81.6971 25.4452L83.5042 28.671H82.4716L82.0843 28.0258H80.2772L79.8899 28.671H78.9863L80.9226 25.4452H81.6971ZM81.8262 27.2516L81.3098 26.2193L80.7935 27.1226H81.8262V27.2516ZM85.3114 25.5742H88.4094C88.6676 25.5742 88.9257 25.8323 88.9257 26.0903V26.9935C88.9257 27.2516 88.6676 27.5097 88.4094 27.5097H88.0221L89.4421 28.671H88.1512L86.8604 27.5097H86.3441V28.671H85.4405L85.3114 25.5742ZM86.215 26.2193V26.8645H87.8931L88.0221 26.7355V26.3484L87.8931 26.2193H86.215ZM90.4747 25.7032H91.7656L92.7982 26.8645L93.8309 25.8323H94.9926L93.1855 27.5097V28.929H92.2819V27.5097L90.4747 25.7032ZM40.9068 24.5419H42.9721C43.8757 24.5419 44.5211 25.3161 44.5211 26.0903V26.2193C44.5211 27.1226 43.7466 27.7677 42.9721 27.7677H40.5195V24.5419H40.9068ZM41.4231 26.9935H42.7139C43.1012 26.9935 43.4884 26.6064 43.4884 26.2193V26.0903C43.4884 25.7032 43.1012 25.3161 42.7139 25.3161L41.4231 25.1871V26.9935Z" fill="white"/>
</svg>

<svg xmlns="http://www.w3.org/2000/svg" width="98" height="32" fill="none">
  <path fill="#000" fill-rule="evenodd" d="M2.698 12.026s.645.645.774 1.29v1.807l-.258 2.064c0 .774.13 1.032.258 1.42l.13 1.032-.13 3.096-.129 1.936.388.903.516-.516.387.774c.258.387 1.291.774 1.291.774l1.29.387 4.132-1.677.903.516 2.323.903 1.55.259 1.549-.388 1.161-.387.258-1.548-3.098-2.065-.645.517-.387-3.355-.388-2.71.388-.258-.388-2.58.259-2.065.129-1.032v-.646l-.904-.387-1.033.387-1.807-.774-1.678.903.13 1.033h2.84l1.161.774v.774l-.387.387-.13 2.194-.258 2.967c-.129 1.29-.387 2.452-.774 3.484l-2.324 1.29c-1.161.388-2.194.388-2.194.388l-1.807-.774-.646-4.259v-1.032l.259-1.806-.388-.387.388-2.065.258-1.42.129-.773-.258-.904-1.55-.516-1.032-.258H1.923l-1.032.13-.775.773.258.517.13.258.387.129.516.645.904-.13h.387Zm17.684-2.194 1.291-.258 1.807-.129 2.97.258.386-.516.517.645h1.29l2.324.645 1.807 2.065v.903c0 .645.258 1.42.13 1.678l-.517 1.935-2.194 1.936s.903 1.677 1.161 2.967c.13 1.29-.258 2.58-.258 2.58l.517.646.903-.129.387-.258 1.033.387-.516 1.677-1.291-.258-.387.258-.517-.516-.387.387s-.645-.774-1.033-2.064c-.516-1.548.13-2.323.13-2.323l-.388-1.935-1.549-1.42-2.84-.645-.258.387.13 1.42.128-.13v1.291h-.129v.258H24.9v2.968l.387.387 1.291.13h1.033v.386l.387.387-.774.774-.646-.129-.645-.129-.258.258-1.291-.129-2.97.387-.903-.645v-1.16l2.711-.775.387-3.871-.387-.774.13-1.162-.388-3.225.516-1.033-.129-1.16-.129-1.291h-.258l-.258.387-2.324-.645-.258-.774v-.904h.258Zm4.776 2.58 1.162-.128 1.29-.13.26.13 1.16-.13 1.292 1.162-.13.516-.128.387.258.258v.646l-.646 1.29-1.807.516-.774.258h-.388l-.129.387-.645-.774h-.775l-.129-2.323-.129-1.935.258-.13Zm9.81-10.838s.388.774 1.033 1.161l1.291.646 1.033.258.516 2.322.258 1.549-.258 3.354-.129 2.71.258 2.323.258 1.677c.13.645 0 1.549-.129 2.323l-.258 2.71h1.42l.645-.646h1.162l.517.774h4.647s1.032-.645 1.678-1.548c.645-.774.903-1.29 1.29-2.194a22.184 22.184 0 0 0 1.291-5.032l-.258-.258-.129-1.677-.129-1.162-1.29-1.677-.517-.774-.646-1.548-1.161-.388h-.517l-.903-.129h-.646l-.516.13-1.29.516-1.292 1.032-.387.516h-.774l-.259-.516.646-3.355-.387-1.161.387-1.678-.387-.774-.259-.645-2.194-.13c-1.42-.128-2.323-.386-2.582-.257-.387.129-.516.387-.774.774l-.258.774Zm8.65 7.613s-.517.516-1.292 1.936c-.774 1.29-.903 1.806-1.161 2.838l-.258 1.807.129.903-.13.774s.646 1.161 1.679 1.807l2.065 1.419c.387.258.904.258.904.258l.516-.516.774-.516c.34-.662.775-1.27 1.291-1.807.108-.863.237-1.723.387-2.58l-.258-1.033-.258-.903.13-.387-.13-1.161-.129-.774-.775-1.033-.774-1.16h-.645l-.775-.13-.645.13h-.646v.128Zm15.747 1.42-.387.516-.387.258-.387.258-.775.645h-1.162l-.645-1.549-.258-.645c-.003-1.002.128-2 .387-2.967l1.033-.775 1.678-.903.645-.258h.258v-.129l.388-.129h.903l.775.13h1.549l1.032.386 2.066.645.516.775.646.774.129 1.935.129 2.323v2.451h-.258l.129 1.033.129 1.032-.13.258-.128.258.645.645.516.645.646-.129 1.161-.129h.388l.129 1.549.129 1.161-1.162 1.29-.903.13-1.162.128-1.162-.774-1.033-.774-1.936 1.29-1.936.645h-2.195l-1.807-.129-1.42-.129-.903-1.032-.646-.774-.387-2.323v-2.064l.516-.903.646-1.033 2.452-.774 1.162-.258.904-.129 1.807-.774.774-.516.259-.258h.387l1.032-.387.517-.13.387-.387.387-.258v-1.16l-1.549-.904-1.807-.774-1.032-.258-1.033.258-.775.258-.387.387-.258.516-.13.129.13.774.516.903.258.13Zm-.774 4.903-1.936 1.29.129 1.935.774 1.162h3.486l1.032-.387 1.162-.387h.129l1.162-1.936-.13-1.29v-1.29h-1.032l-1.42.386-1.033.388h-2.581l.258.129ZM73.177 4.8 71.5 6.22l.258.903.775.258.904.258.387.129.387.387-.258.903v.13l.387 1.031.387.904h-.903v1.16l.774 1.033-.258 1.548-.516 1.033.258.258-.387 1.548v.13l.387.644-.13.904v.516l-1.548.774-.775 1.548 1.033.387 1.29.258c.646-.129.904-.387.904-.387l.904.258.904.259v-.13l.258.259.387-.646h.258l1.291.258.775-.645v-.774l-.259-.258-.387-.645h-.645l-1.42-.516-.258-4.258-.259-3.226.259-.258-.259-1.807v-.516l.13-.387 1.161 1.678 1.162 2.58.645 1.42.775 1.29-.13-2.323c0-.903-.386-1.677-.516-2.193l-.774-1.807.258-.903-1.29-1.29.516-1.549-.904-.903h-.516l-.904-.129-.516-.129-.258.258-1.162-.258c-.258-.258-.904-.387-.904-.387Zm7.358 11.355 1.033.387h.903v.129h1.162v1.161l.516.774-.258.258v.13h.13l.128 2.58-.387.516-.387.645-1.033-.258c-.516-.258-.774-.774-.774-.774v-.774l-.517-.645h-.516v-1.42l.516-.516-.387-.645-.258-.516.258-.903-.129-.13Zm2.065-.13h.904v-1.031l.13-1.678-.13-.774v-.645l.387-1.42v-.645h-.258l.258-.129-.129-.903-.129-.774.258-.258.258-.258 1.162.258.646-.645.516-.775.129-.387-.775-.516-.645-.516h-.645l-1.55.258h-1.032l-.775-.258-1.032.387-.646.258-.258 1.032.517.775.903.258.904.258.129-.13.258.259.258.258.13 1.548.257 1.936v.774c-.258.129-.516 1.548-.516 1.548l.258.903.258 1.033Z" clip-rule="evenodd"/>
  <path fill="#000" d="m33.033 22.22 64.67 2.193v7.742l-64.67-2.194V22.22Z"/>
  <path fill="#fff" fill-rule="evenodd" d="M51.104 25.445c0-.387.258-.645.646-.645h2.323c.387 0 .645.258.645.645v.516l-.903.13v-.646h-1.807v1.807h1.807v-.646l.904.258v.517c0 .387-.259.645-.646.645H51.75c-.388 0-.646-.258-.646-.645v-1.936Zm-4.389-.774h.904v3.226h-.904V24.67Zm16.007.258h.903v3.226h-.903v-3.226Zm-4.39 0h.904v3.226h-.903v-3.226Z" clip-rule="evenodd"/>
  <path fill="#fff" fill-rule="evenodd" d="m57.042 24.8 3.744.129v.645h-3.744V24.8Zm16.91.516 2.324 1.936v-1.807h.903v3.226h-.774l-2.195-2.065-.129 1.936h-.903l.129-3.226h.645Zm-7.616.387c0-.387.258-.645.646-.645l2.84.13c.387 0 .645.257.645.644v1.936c0 .387-.258.645-.646.645h-2.84c-.387 0-.645-.258-.645-.645v-2.065Zm.904.13h2.194v1.806l-2.194-.13v-1.677Zm14.457-.388 1.807 3.226h-1.032l-.388-.645h-1.807l-.387.645h-.904l1.937-3.226h.774Zm.13 1.807-.517-1.033-.517.904h1.033v.129Zm3.484-1.678h3.098c.259 0 .517.258.517.516v.904c0 .258-.258.516-.517.516h-.387l1.42 1.161h-1.29L86.86 27.51h-.516v1.161h-.903l-.13-3.097Zm.904.645v.645h1.678l.13-.129v-.387l-.13-.129h-1.678Zm4.26-.516h1.29l1.033 1.162 1.033-1.033h1.162l-1.807 1.678v1.419h-.904v-1.42l-1.807-1.806Zm-49.568-1.161h2.065c.904 0 1.55.774 1.55 1.548v.13c0 .903-.775 1.548-1.55 1.548H40.52v-3.226h.388Zm.516 2.451h1.29c.388 0 .775-.387.775-.774v-.129c0-.387-.387-.774-.774-.774l-1.29-.129v1.806Z" clip-rule="evenodd"/>
</svg>
